X:1
T:Title
%%score ( 1 2 ) { 3 | 4 }
L:1/8
M:3/4
K:G
V:1 treble nm="Grand Piano, Staff 1"
V:2 treble 
V:3 bass nm="Choir Pad, Angels� Song, LM"
V:4 bass 
V:1
 [DG]2 [DB]4 | [EG]2 [FA]4 | [GB]2 c2 B2 | [FA]2 G4 | [DG]2 [DB]4 | [E^c]2 [Fd]4 | A2 d2- [Fd]2 | %7
w: By~Orlando~Gibbons~(1583\-1625) *|||||||
 [E^c]2 [Fd]4 | [DB]2 [Gc]4 | [Gd]2 [Ge]4 | [Gd]2 c2- [Fc]2 | [GB]2 [FA]4 | [Gd]2 [Gc]4 | %13
w: ||||||
 [GB]2 [FA]4 | G2 c2 B2 | [FA]2 G4- | G4 z2 |] %17
w: ||||
V:2
 x6 | x6 | z2 G4 | x6 | x6 | x6 | z2 G2 z2 | x6 | x6 | x6 | z2 G2 z2 | x6 | x6 | x6 | z2 G4 | x6 | %16
 x6 |] %17
V:3
 B,2 B,4 | B,2 D4 | D2[K:treble] E2 D2 | C2 B,4 | B,2[K:bass] B,4 | G,2 A,4 | D2 D2 A,2 | A,2 A,4 | %8
 B,2 G,4 | B,2[K:treble] C4 | D2 E2 A,2 | D2 D4 | D2 E4 | D2 D2 C2 | B,2 E2 D2 | C2 B,4- | %16
 B,4 z2 |] %17
V:4
 G,2 G,4 | E,2 D,4 | G,2 C,2 D,2 | D,2 G,,4 | G,2 G,4 | E,2 D,4 | F,2 B,2 z2 | A,,2 D,4 | G,2 E,4 | %9
 G,2 z2 z2 | B,2 A,2 z2 | G,2 D,4 | B,,2 C,4 | G,2 D,4 | E,2 C,2 C,2 | D,2 G,,4- | G,,4 z2 |] %17

